packages/icons/svg/Navigation_Display_DisplayList_Outline_64px.svg

<svg xmlns="http://www.w3.org/2000/svg" viewBox="0 0 64 64"><path d="M57 5H7a2 2 0 00-2 2v10a2 2 0 002 2h50a2 2 0 002-2V7a2 2 0 00-2-2zm-1 11H8V8h48zM57 45H7a2 2 0 00-2 2v10a2 2 0 002 2h50a2 2 0 002-2V47a2 2 0 00-2-2zm-1 11H8v-8h48zM57 25H7a2 2 0 00-2 2v10a2 2 0 002 2h50a2 2 0 002-2V27a2 2 0 00-2-2zm-1 11H8v-8h48z"/></svg>

<svg xmlns="http://www.w3.org/2000/svg" viewBox="0 0 64 64"><defs></defs><g id="Icon"><path  d="M57,5H7A2,2,0,0,0,5,7V17a2,2,0,0,0,2,2H57a2,2,0,0,0,2-2V7A2,2,0,0,0,57,5ZM56,16H8V8H56Z"/><path  d="M57,45H7a2,2,0,0,0-2,2V57a2,2,0,0,0,2,2H57a2,2,0,0,0,2-2V47A2,2,0,0,0,57,45ZM56,56H8V48H56Z"/><path  d="M57,25H7a2,2,0,0,0-2,2V37a2,2,0,0,0,2,2H57a2,2,0,0,0,2-2V27A2,2,0,0,0,57,25ZM56,36H8V28H56Z"/></g></svg>
